packages/core/src/svgs/tokens/branded/BST.svg

<svg width="24" height="24" viewBox="0 0 24 24" fill="none" xmlns="http://www.w3.org/2000/svg">
<path d="M3.24995 12.0001C3.24995 16.8323 7.16729 20.7497 11.9996 20.7497V21.9996C6.4767 21.9996 2 17.523 2 12.0001H3.24995Z" fill="#88743C"/>
<path d="M20.7497 12C20.7497 7.16769 16.8324 3.25036 12.0001 3.25036V2.0004C17.523 2.0004 21.9998 6.4771 21.9998 12C21.9998 17.523 17.523 21.9996 12.0001 21.9996V20.7497C16.8324 20.7497 20.7497 16.8323 20.7497 12ZM8.90026 3.81532C7.82814 4.22228 6.84646 4.83598 6.011 5.62151L5.15479 4.71029C6.10974 3.8127 7.23179 3.11151 8.45715 2.64663L8.90026 3.81532Z" fill="#FFBC00"/>
<path d="M11.9997 5.75028C8.54796 5.75028 5.74996 8.5483 5.74996 12.0001H4.5C4.5 7.85832 7.858 4.50034 11.9997 4.50034V5.75028Z" fill="#88743C"/>
<path d="M17.8051 9.68067C17.4917 8.89854 17.0236 8.1877 16.4289 7.5908L17.3145 6.70834C18.0282 7.42462 18.5898 8.27769 18.9657 9.21636L17.8051 9.68067ZM5.74996 12.0001C5.74996 15.4518 8.54796 18.2498 11.9997 18.2498C15.4514 18.2498 18.2494 15.4518 18.2494 12.0001H19.4994C19.4994 16.1417 16.1415 19.4997 11.9997 19.4997C7.858 19.4997 4.5 16.1417 4.5 12.0001H5.74996Z" fill="#FFBC00"/>
<path d="M15.7498 12.0001C15.7498 11.0055 15.3548 10.0517 14.6516 9.34849C13.9484 8.64523 12.9945 8.25017 12 8.25017V7.00021C13.326 7.00021 14.5978 7.52699 15.5354 8.46463C16.4731 9.4023 16.9998 10.6741 16.9998 12.0001H15.7498Z" fill="#88743C"/>
<path d="M11.9993 8.25017C11.0047 8.25017 10.051 8.64523 9.3477 9.34849C8.64453 10.0517 8.24946 11.0055 8.24946 12.0001C8.24946 12.9946 8.64453 13.9483 9.3477 14.6515C10.051 15.3548 11.0047 15.7499 11.9993 15.7499V16.9998C10.6733 16.9998 9.40151 16.473 8.46391 15.5354C7.52627 14.5977 6.99951 13.3261 6.99951 12.0001C6.99951 10.6741 7.52627 9.4023 8.46391 8.46463C9.40151 7.52699 10.6733 7.00021 11.9993 7.00021V8.25017ZM13.6305 15.3774C14.2746 15.0651 14.8167 14.5758 15.1929 13.9668L16.2566 14.6231C15.7555 15.4344 15.0337 16.0863 14.1755 16.5023L13.6305 15.3774Z" fill="#FFBC00"/>
<path d="M11.9999 10.7501C11.6685 10.7501 11.3506 10.8818 11.1161 11.1162C10.8817 11.3506 10.75 11.6685 10.75 12.0001H9.5C9.5 11.337 9.76336 10.7012 10.2322 10.2324C10.701 9.76355 11.337 9.50018 11.9999 9.50018C12.663 9.50018 13.2988 9.76355 13.7676 10.2324C14.2365 10.7012 14.4998 11.337 14.4998 12.0001H13.25C13.25 11.6685 13.1183 11.3506 12.8838 11.1162C12.6494 10.8818 12.3314 10.7501 11.9999 10.7501Z" fill="#88743C"/>
<path d="M13.25 12.0001C13.25 11.6685 13.1184 11.3506 12.8839 11.1162C12.6495 10.8818 12.3315 10.7501 12 10.7501V9.50018C12.6631 9.50018 13.2989 9.76355 13.7677 10.2324C14.2366 10.7012 14.4999 11.337 14.4999 12.0001C14.4999 12.663 14.2366 13.299 13.7677 13.7677C13.2989 14.2365 12.6631 14.5 12 14.5V13.25C12.3315 13.25 12.6495 13.1183 12.8839 12.884C13.1184 12.6495 13.25 12.3316 13.25 12.0001Z" fill="#FFBC00"/>
</svg>

<svg xmlns="http://www.w3.org/2000/svg" width="24" height="24" fill="none" viewBox="0 0 24 24">
    <path fill="#88743C" d="M3.25 12A8.75 8.75 0 0 0 12 20.75V22C6.477 22 2 17.523 2 12z"/>
    <path fill="#FFBC00" d="M20.75 12A8.75 8.75 0 0 0 12 3.25V2c5.523 0 10 4.477 10 10s-4.477 10-10 10v-1.25A8.75 8.75 0 0 0 20.75 12M8.9 3.815a8.8 8.8 0 0 0-2.889 1.807l-.856-.912a10 10 0 0 1 3.302-2.063z"/>
    <path fill="#88743C" d="M12 5.75A6.25 6.25 0 0 0 5.75 12H4.5A7.5 7.5 0 0 1 12 4.5z"/>
    <path fill="#FFBC00" d="M17.805 9.68a6.3 6.3 0 0 0-1.376-2.09l.886-.882a7.5 7.5 0 0 1 1.65 2.508zM5.75 12a6.25 6.25 0 1 0 12.5 0h1.25a7.5 7.5 0 0 1-15 0z"/>
    <path fill="#88743C" d="M15.75 12A3.75 3.75 0 0 0 12 8.25V7a5 5 0 0 1 5 5z"/>
    <path fill="#FFBC00" d="M12 8.25a3.75 3.75 0 1 0 0 7.5V17a5 5 0 0 1 0-10zm1.63 7.127a3.77 3.77 0 0 0 1.563-1.41l1.064.656a5 5 0 0 1-2.082 1.88z"/>
    <path fill="#88743C" d="M12 10.75A1.25 1.25 0 0 0 10.75 12H9.5a2.5 2.5 0 1 1 5 0h-1.25A1.25 1.25 0 0 0 12 10.75"/>
    <path fill="#FFBC00" d="M13.25 12A1.25 1.25 0 0 0 12 10.75V9.5a2.5 2.5 0 1 1 0 5v-1.25A1.25 1.25 0 0 0 13.25 12"/>
</svg>
